X:2202
T:Broken Pledge
M:C
L:1/8
K:D Dorian
d|dcAG ADDB|cAGF ECCE|DEFG Addc|AcGc Adfe|!
dcAG A2dB|cAGF ECCE|DEFG Addc|AcGc ADD:|!
d|dcAG Acde|fAdf ecAB|cAGE GAcd|ecc2 eage|!
dcAG Acde|fAdf ecAG|F2FE FGAB|cAGE FDD:|!


